src/images/single-assets/QI BPT.svg

<svg xmlns="http://www.w3.org/2000/svg" width="500" height="500" fill="none"><path fill="#F87171" d="M250 500c138.072 0 250-111.928 250-250C500 111.929 388.072 0 250 0 111.929 0 0 111.929 0 250c0 138.072 111.929 250 250 250"/><path fill="#000" d="M249.04 190.51c-5.529-4.925-16.49-11.714-35.51-11.625-19.019.089-15.911 9.685-15.911 9.685s-.389 7.829 12.033 8.073c12.423.243 25.741.725 36.545 4.685s8.378-5.904 2.843-10.818M204.09 208.393c-1.144.675-1.436 2.572-.111 2.812 7.512 1.34 19.394 3.776 32.648 1.683 1.255-.198 1.067-1.874.159-2.743-4.702-4.502-17.33-10.814-32.696-1.752"/><path fill="#000" d="M360.372 334.312a1.642 1.642 0 0 0-1.564-.659 1.65 1.65 0 0 0-.808.353 1.6 1.6 0 0 0-.5.713c-7.731 22.49-14.06 16.981-16.985 12.145a20.3 20.3 0 0 1-2.25-5.473c-7.378-28.73-.622-55.193-.622-55.193 4.016 12.228 14.547 15.854 19.942 16.914a1.67 1.67 0 0 0 1.653-.616 1.59 1.59 0 0 0 .128-1.727c-20.671-39.647-8.45-56.449-8.45-56.449 3.559 3.87 9.423 4.217 13.117 4.015.312-.017.612-.12.866-.296.254-.177.452-.421.57-.702a1.59 1.59 0 0 0-.297-1.699c-14.978-16.185-16.118-21.675-16.701-49.084-.32-15.19-5.774-23.178-10.843-27.339-5.801-4.755-10.431-10.813-12.964-17.804-20.209-55.596-58.023-62.943-93.112-60.862-43.561 2.586-66.754 35.215-77.764 51.473-11.647 17.19-20.724 42.608-20.111 50.386.613 7.776 7.947 6.559 7.947 15.549 0 8.993-14.199 16.469-8.617 41.746 2.465 11.138 12.446 19.487 7.956 44.929-8.028 45.725 27.784 101.283 36.707 109.571 1.082.997 2.982.192 2.786-1.251-1.393-10.206.646-24.365.646-24.365 17.942 37.638 68.138 30.657 83.859 27.429a1.67 1.67 0 0 0 .87-.477 1.59 1.59 0 0 0 .266-1.841 1.63 1.63 0 0 0-.7-.694c-15.874-8.252-19.502-25.016-19.502-25.016 15.797 7.318 25.917 6.091 30.795 4.522.296-.097.558-.274.755-.512a1.59 1.59 0 0 0 .214-1.715 1.6 1.6 0 0 0-.611-.674c-4.758-2.923-12.009-14.993-17.496-26.805a27.8 27.8 0 0 1-2.304-15.569 28.07 28.07 0 0 1 6.527-14.378c6.419-7.497 14.839-17.96 24.413-29.078 2.002-2.343 4.787-.056 5.841 2.483 13.986 34.273 32.182 60.108 44.725 67.23 9.095 5.496 19.056 6.485 23.533 3.027 12.341-9.525 2.556-25.957-1.915-32.207m-151.425-31.897c-15.002.885-11.583-18.198-22.603-17.731-11.805.516-8.267 15.068-16.185 15.954-7.918.885-6.994-21.369-1.436-23.952 8.755-4.056 19.009-5.031 27.219-4.75 9.726.328 19.019-.043 23.379 9.112 5.165 10.801 4.624 20.504-10.374 21.367m94.874-136.372c-19.945 11.601-21.12 17.336-23.976 37.736-.632 4.483-1.274 9.731.823 12.698 4.735 6.694 13.739 11.651 11.268 22.957-5.888 26.907-21.413 58.454-42.237 68.312-2.507 1.186-5.379-1.213-5.963-3.876-2.322-10.663-7.847-30.05-9.339-36.38-7.417-36.259-42.754-36.761-43.745-29.827-.292 2.062 7.158 4.779 11.887 6.287 4.341 1.407 4.49 7.469.166 8.903a12.3 12.3 0 0 1-3.504.552c-8.735-.585-19.817.08-24.815.436a6.85 6.85 0 0 1-4.654-1.378 6.58 6.58 0 0 1-2.498-4.085c-1.953-11.099 1.499-15.078 5.673-25.618 2.077-5.248 4.744-15.828 5.668-21.254.478-2.909.273-6.405-.039-9.023a63.4 63.4 0 0 1-.445-9.334c.297-10.059 1.317-18.272 9.143-18.272 14.099 0 43.93.042 48.655-6.742 4.956-7.104-22.695-.216-52.408-1.153a2.42 2.42 0 0 1-1.559-.634 2.33 2.33 0 0 1-.743-1.484c0-.178-.034-.351-.053-.529a3.6 3.6 0 0 1 .184-1.502c.167-.483.433-.927.782-1.305s.775-.681 1.25-.891a3.9 3.9 0 0 1 1.509-.327c15.868-.192 27.941-1.27 31.116-5.796 3.227-4.629-12.81-2.553-30.987-2.389-2.327 0-4.251-.033-4.131-2.305v-.075a3.64 3.64 0 0 1 1.084-2.396 3.8 3.8 0 0 1 2.439-1.081c10.694-.689 15.252-1.485 15.701-4.831.45-3.345-1.1-3.008-12.925-2.342-2.57.14-1.833-1.766-.373-3.852 3.691-5.317 20.192-20.657 56.702-19.537 62.548 1.949 60.571 45.307 62.486 55.839a4.3 4.3 0 0 1-.351 2.577 4.4 4.4 0 0 1-1.791 1.921"/></svg>

<svg width="500" height="500" viewBox="0 0 500 500" fill="none" xmlns="http://www.w3.org/2000/svg">
<path d="M250 500C388.072 500 500 388.072 500 250C500 111.929 388.072 0 250 0C111.929 0 0 111.929 0 250C0 388.072 111.929 500 250 500Z" fill="#F87171"/>
<path d="M249.04 190.51C243.511 185.585 232.55 178.796 213.53 178.885C194.511 178.974 197.619 188.57 197.619 188.57C197.619 188.57 197.23 196.399 209.652 196.643C222.075 196.886 235.393 197.368 246.197 201.328C257.001 205.287 254.575 195.424 249.04 190.51Z" fill="black"/>
<path d="M204.09 208.393C202.946 209.068 202.654 210.965 203.979 211.205C211.491 212.545 223.373 214.981 236.627 212.888C237.882 212.69 237.694 211.014 236.786 210.145C232.084 205.643 219.456 199.331 204.09 208.393Z" fill="black"/>
<path d="M360.372 334.312C360.197 334.072 359.961 333.882 359.684 333.766C359.409 333.649 359.104 333.61 358.808 333.653C358.509 333.696 358.23 333.818 358 334.006C357.769 334.194 357.595 334.44 357.5 334.719C349.769 357.209 343.44 351.7 340.515 346.864C339.5 345.155 338.742 343.312 338.265 341.391C330.887 312.661 337.643 286.198 337.643 286.198C341.659 298.426 352.19 302.052 357.585 303.112C357.893 303.174 358.211 303.149 358.504 303.039C358.796 302.93 359.05 302.74 359.238 302.496C359.424 302.25 359.537 301.955 359.558 301.651C359.581 301.345 359.515 301.039 359.366 300.769C338.695 261.122 350.916 244.32 350.916 244.32C354.475 248.19 360.339 248.537 364.033 248.335C364.345 248.318 364.645 248.215 364.899 248.039C365.153 247.862 365.351 247.618 365.469 247.337C365.587 247.054 365.624 246.746 365.571 246.446C365.519 246.145 365.38 245.864 365.172 245.638C350.194 229.453 349.054 223.963 348.471 196.554C348.151 181.364 342.697 173.376 337.628 169.215C331.827 164.46 327.197 158.402 324.664 151.411C304.455 95.8149 266.641 88.4684 231.552 90.5487C187.991 93.1349 164.798 125.764 153.788 142.022C142.141 159.212 133.064 184.63 133.677 192.408C134.29 200.184 141.624 198.967 141.624 207.957C141.624 216.95 127.425 224.426 133.007 249.703C135.472 260.841 145.453 269.19 140.963 294.632C132.935 340.357 168.747 395.915 177.67 404.203C178.752 405.2 180.652 404.395 180.456 402.952C179.063 392.746 181.102 378.587 181.102 378.587C199.044 416.225 249.24 409.244 264.961 406.016C265.294 405.948 265.599 405.781 265.831 405.539C266.064 405.296 266.215 404.988 266.261 404.659C266.31 404.329 266.252 403.994 266.097 403.698C265.942 403.401 265.697 403.159 265.397 403.004C249.523 394.752 245.895 377.988 245.895 377.988C261.692 385.306 271.812 384.079 276.69 382.51C276.986 382.413 277.248 382.236 277.445 381.998C277.643 381.762 277.769 381.475 277.806 381.171C277.845 380.866 277.792 380.558 277.659 380.283C277.525 380.006 277.314 379.773 277.048 379.609C272.29 376.686 265.039 364.616 259.552 352.804C257.3 347.93 256.5 342.533 257.248 337.235C257.994 331.934 260.258 326.952 263.775 322.857C270.194 315.36 278.614 304.897 288.188 293.779C290.19 291.436 292.975 293.723 294.029 296.262C308.015 330.535 326.211 356.37 338.754 363.492C347.849 368.988 357.81 369.977 362.287 366.519C374.628 356.994 364.843 340.562 360.372 334.312ZM208.947 302.415C193.945 303.3 197.364 284.217 186.344 284.684C174.539 285.2 178.077 299.752 170.159 300.638C162.241 301.523 163.165 279.269 168.723 276.686C177.478 272.63 187.732 271.655 195.942 271.936C205.668 272.264 214.961 271.893 219.321 281.048C224.486 291.849 223.945 301.552 208.947 302.415ZM303.821 166.043C283.876 177.644 282.701 183.379 279.845 203.779C279.213 208.262 278.571 213.51 280.668 216.477C285.403 223.171 294.407 228.128 291.936 239.434C286.048 266.341 270.523 297.888 249.699 307.746C247.192 308.932 244.32 306.533 243.736 303.87C241.414 293.207 235.889 273.82 234.397 267.49C226.98 231.231 191.643 230.729 190.652 237.663C190.36 239.725 197.81 242.442 202.539 243.95C206.88 245.357 207.029 251.419 202.705 252.853C201.571 253.205 200.391 253.391 199.201 253.405C190.466 252.82 179.384 253.485 174.386 253.841C172.713 253.963 171.054 253.473 169.732 252.463C168.409 251.452 167.519 249.996 167.234 248.378C165.281 237.279 168.733 233.3 172.907 222.76C174.984 217.512 177.651 206.932 178.575 201.506C179.053 198.597 178.848 195.101 178.536 192.483C178.158 189.386 178.01 186.267 178.091 183.149C178.388 173.09 179.408 164.877 187.234 164.877C201.333 164.877 231.164 164.919 235.889 158.135C240.845 151.031 213.194 157.919 183.481 156.982C182.9 156.963 182.346 156.737 181.922 156.348C181.499 155.958 181.234 155.431 181.179 154.864C181.179 154.686 181.145 154.513 181.126 154.335C181.081 153.827 181.144 153.316 181.31 152.833C181.477 152.35 181.743 151.906 182.092 151.528C182.442 151.15 182.867 150.847 183.342 150.637C183.816 150.428 184.33 150.316 184.851 150.31C200.719 150.118 212.792 149.04 215.967 144.514C219.194 139.885 203.157 141.961 184.98 142.125C182.653 142.125 180.729 142.092 180.849 139.82V139.745C180.897 138.843 181.283 137.99 181.933 137.349C182.583 136.708 183.451 136.323 184.372 136.268C195.066 135.579 199.624 134.783 200.073 131.437C200.523 128.092 198.973 128.429 187.148 129.095C184.578 129.235 185.315 127.329 186.775 125.243C190.466 119.926 206.967 104.586 243.477 105.706C306.025 107.655 304.048 151.013 305.963 161.545C306.116 162.419 305.994 163.318 305.612 164.122C305.23 164.926 304.604 165.597 303.821 166.043Z" fill="black"/>
</svg>
